X: 7578
T: Cocktail, The
R: reel
M: 4/4
K: Dmajor
|:DF~F2 D2fe|dF~F2 AFEF|DF~F2 DFed|cA~A2 EFGE:|
E~A3 eA~A2|eA~A2 BAGB|e~A3 eA~A2|gedB GABG|
E~A3 eA~A2|eA~A2 BAGB|e~A3 eaag|fgec dAFE||

